app/client/src/assets/icons/blueprintjs/20px/multi-select.svg

<svg xmlns="http://www.w3.org/2000/svg" xml:space="preserve" viewBox="0 0 20 20"><path fill-rule="evenodd" d="M19 3H7c-.55 0-1 .45-1 1v1h12v6h1c.55 0 1-.45 1-1V4c0-.55-.45-1-1-1zm-6 6H1c-.55 0-1 .45-1 1v6c0 .55.45 1 1 1h12c.55 0 1-.45 1-1v-6c0-.55-.45-1-1-1zm-1 6H2v-4h10v4zm4-9H4c-.55 0-1 .45-1 1v1h12v6h1c.55 0 1-.45 1-1V7c0-.55-.45-1-1-1z" clip-rule="evenodd"/></svg>

<?xml version="1.0" encoding="utf-8"?>
<!-- Generator: Adobe Illustrator 17.1.0, SVG Export Plug-In . SVG Version: 6.00 Build 0)  -->
<!DOCTYPE svg PUBLIC "-//W3C//DTD SVG 1.1//EN" "http://www.w3.org/Graphics/SVG/1.1/DTD/svg11.dtd">
<svg version="1.1" id="Layer_1" xmlns="http://www.w3.org/2000/svg" xmlns:xlink="http://www.w3.org/1999/xlink" x="0px" y="0px"
	 viewBox="0 0 20 20" enable-background="new 0 0 20 20" xml:space="preserve">
<g id="Rounded_Rectangle_2_copy_2">
	<g>
		<path fill-rule="evenodd" clip-rule="evenodd" d="M19,3H7C6.45,3,6,3.45,6,4v1h12v6h1c0.55,0,1-0.45,1-1V4C20,3.45,19.55,3,19,3z
			 M13,9H1c-0.55,0-1,0.45-1,1v6c0,0.55,0.45,1,1,1h12c0.55,0,1-0.45,1-1v-6C14,9.45,13.55,9,13,9z M12,15H2v-4h10V15z M16,6H4
			C3.45,6,3,6.45,3,7v1h12v6h1c0.55,0,1-0.45,1-1V7C17,6.45,16.55,6,16,6z"/>
	</g>
</g>
</svg>
